X:1
T: Haig of Bemersyde
C:Muriel A Johnstone
R:Strathspey
Q: 128
K:D
M:4/4
L:1/16
|:A2|FA3 d3f e3d Bd3|A3F GFED E4 A3G|FA3 d3f e3d Bd3|AA3 f3e d6AG|
FA3 d3f e3d Bd3|A3F GFED E4 A3G|FGA2 A3d GAB2 B3d|cde2 a3f d6fg|
a3f b3g af3 e3d|g3e gfed e4 f3g|a3f b3g af3 e3d|cde2 A3c d6fg|
a3f b3g af3 e3d|e3d c2B2 A2G2 F2E2|FGA2 A3d GAB2 B3d|cde2 a3f d6:|
